X:1
T:Title
%%score 1 2
L:1/8
Q:1/4=85
M:6/8
K:Bb
V:1 treble nm="Grand Piano, Soprano"
V:2 bass nm="Choir Pad, Çanakkale, Bradbury, 1864"
V:1
 [DB]/[Ec]/[Fd][Fd] [Fd][Fd][Ec] | [DB][GB][EG] [EG] [EG]2 | [EG]/[EG]/[DF][DB] [DB][DB][EA] | %3
w: By~William~Batchelder~Bradbury,~1864 * * * * * *|||
 [DB] [Fc]2- [Fc]2- [Fc]/ z/ | [DB]/[Ec]/[Fd][Fd] [Fd][Fd][Ec] | [DB][GB][EG] [EG] [EG]2 | %6
w: |||
 [EG]/[EG]/[DF][DB] [DB][EA][EG] | [EA] [DB]2- [DB]2- [DB]/ z/ | [CA]/[DB]/[Fc]F F F2 | %9
w: |||
 [DB]/[Ec]/[Fd][DB] [DB] [DB]2 | [Fc]/[Fd]/[Fe][Fd] [Fc][Fd][Ec] | [DB] [Fc]2- [Fc]2- [Fc]/ z/ | %12
w: |||
 [DB]/[Ec]/[Fd][Fd] [Fd][Fd][Ec] | [DB][GB][EG] [EG] [EG]2 | [EG]/[EG]/[DF][DB] [DB][CA][B,G] | %15
w: |||
 [CA] [DB]2- [DB]3- | [DB]3 z3 |] %17
w: ||
V:2
 [B,,B,]/[B,,B,]/[B,,B,][B,,B,] [B,,B,][B,,B,][C,A,] | [D,B,][E,B,][E,B,] [E,B,] [E,B,]2 | %2
 [E,B,]/[E,B,]/[B,,B,][B,,F,] [B,,F,][B,,F,][B,,F,] | [B,,B,] [F,A,]2- [F,A,]2- [F,A,]/ z/ | %4
 [B,,B,]/[B,,B,]/[B,,B,][B,,B,] [B,,B,][B,,B,][C,A,] | [D,B,][E,B,][E,B,] [E,B,] [E,B,]2 | %6
 [E,B,]/[E,B,]/[F,B,]F, F,[F,C][F,C] | [F,C] [B,,B,]2- [B,,B,]2- [B,,B,]/ z/ | %8
 [F,C]/[F,B,]/[F,A,][F,A,] [F,A,] [F,A,]2 | [B,,B,]/[B,,B,]/[B,,B,][B,,F,] [B,,F,] [B,,F,]2 | %10
 [F,A,]/[F,B,]/[F,C][F,B,] [F,A,][F,B,][F,A,] | [F,B,] [F,A,]2- [F,A,]2- [F,A,]/ z/ | %12
 B,/B,/B,B, B,[B,,B,][C,A,] | [D,B,][E,B,][E,B,] [E,B,] [E,B,]2 | [E,B,]/[E,B,]/[F,B,]F, F,F,F, | %15
 F, [B,,F,]2- [B,,F,]3- | [B,,F,]3 z3 |] %17

